X:207
T: Ich fahr dahin
N: A0252
O: Europa, Mitteleuropa, Deutschland
N: Locheimer Liederbuch Ausgabe 1867 No. 8
R: Romanze, Ballade, Lied
M: 3/2
L: 1/2
K: F
E | F2F | C2B | A2G | F2
F | E2F | G2C | E2D | C2
C | F2G | A2G | B2A | F2
F | A2B | c2d | c2A | F2
G | FEF | B2A | FAG | F2

@@@ Tune index: 207
